tn/skype.svg

<svg viewBox="0 0 15 15" fill="none" xmlns="http://www.w3.org/2000/svg" height="1em" width="1em">
  <path fill-rule="evenodd" clip-rule="evenodd" d="M0 4.45652C0 1.99516 1.99516 0 4.45652 0C5.30581 0 6.10158 0.23862 6.77772 0.652189C7.01002 0.626299 7.2512 0.608696 7.5 0.608696C11.3053 0.608696 14.3913 3.694 14.3913 7.5C14.3913 7.74838 14.3742 7.98953 14.3477 8.223C14.7609 8.8987 15 9.69368 15 10.5435C15 13.0049 13.0042 15 10.5435 15C9.69362 15 8.89846 14.7614 8.22209 14.348C7.989 14.3741 7.74799 14.3913 7.5 14.3913C3.69403 14.3913 0.608696 11.306 0.608696 7.5C0.608696 7.25158 0.625863 7.0105 0.651994 6.77741C0.238568 6.10144 0 5.30627 0 4.45652ZM6 6C6 5.44772 6.44772 5 7 5H7.88197C8.37778 5 8.83105 5.28013 9.05279 5.72361L9.94721 5.27639C9.55608 4.49413 8.75656 4 7.88197 4H7C5.89543 4 5 4.89543 5 6C5 7.10457 5.89543 8 7 8H8C8.55228 8 9 8.44772 9 9C9 9.55228 8.55228 10 8 10H7.11803C6.62222 10 6.16895 9.71987 5.94721 9.27639L5.05279 9.72361C5.44392 10.5059 6.24344 11 7.11803 11H8C9.10457 11 10 10.1046 10 9C10 7.89543 9.10457 7 8 7H7C6.44772 7 6 6.55228 6 6Z" fill="black"/>
</svg>

<svg viewBox="0 0 15 15" fill="none" xmlns="http://www.w3.org/2000/svg" height="1em" width="1em">
  <path fill-rule="evenodd" clip-rule="evenodd" d="M0 4.457A4.456 4.456 0 0 1 6.778.652 6.46 6.46 0 0 1 7.5.61a6.892 6.892 0 0 1 6.891 6.89c0 .248-.017.49-.043.723a4.457 4.457 0 0 1-6.126 6.125 6.477 6.477 0 0 1-.722.043A6.891 6.891 0 0 1 .609 7.5c0-.248.017-.49.043-.723A4.435 4.435 0 0 1 0 4.457ZM6 6a1 1 0 0 1 1-1h.882c.496 0 .949.28 1.17.724l.895-.448A2.309 2.309 0 0 0 7.882 4H7a2 2 0 1 0 0 4h1a1 1 0 0 1 0 2h-.882c-.496 0-.95-.28-1.17-.724l-.895.448A2.309 2.309 0 0 0 7.118 11H8a2 2 0 1 0 0-4H7a1 1 0 0 1-1-1Z" fill="#000"/>
</svg>
